X: 1
T: Shalom Aleichem
C: lyrics: Kabbalists of Safed (1500s)
C: melody: Israel Goldfarb (1918)
D: Andy Statman & David Grisman "Songs of our Fathers"
Z: John Chambers <jc:trillian.mit.edu>
M: C
L: a/8
K: Dm
[|"Dm"A2 fe d2 dd | "A7"^cd ed cB A2 | ^cc c2 "Dm"dc df | "A7"e4 z4 |
w: Sha-lom a-lei-chem mal'a- che* ha-sha-ret__ ma-l'a-che el-***yon.
| "Dm"A2 fe d2 dd | "A7"^cd ed cB A2 | "Gm"GG d2 ^c2 B{A}G | "A7"A4 z4 |
w: Mi-**me-lech mal-che*ha-m'la-chim__ ha-ka-dosh ba-ruch* hu.
| "F"fg a2 a2 a2 | "C7"gf ef "A7"ga g2 | "Dm"fe de fa gf | "A7"e4 z4 |
w: Bo-'a-chem~l'-sha-lom ma-l'a-che ha-sha-*lom ma-l'a-che_ el-___yon
| "Gm"e2 g2 g2 gg | "A7"gb ag "Dm"fe d2 | f2 ed "A7"e2 d^c | "Dm"d4 z4 |]
w: Mi-*me-lech mal-'che* ha-m'la-chim__ ha-ka-dosh ba-ruch_ hu.
%
W: Peace upon you, ministering angels, angels of the Exalted One
W: from the King Who reigns over kings, the Holy One, Blessed is He.

%%sep 1 1 500

